X: 44
T: No_136_Love_Song_(b).krn
N: Derived from No_136_Love_Song_(b).krn
%%abc-version 2.0
%%abcx-abcm2ps-target-version 5.9.1 (29 Sep 2008)
%%abc-creator hum2abc beta
%%abcx-conversion-date 2019/03/15 08:35:44
%%humdrum-veritas 660696060
%%humdrum-veritas-data 1080378468
%%linebreak <none>
%%barnumbers 0
L: 1/8
M: 2/4
K: A clef=bass
[K:clef=bass][M:2/4]E3/B,/ B,3/C/ ||  
[M:3/4]C3/E/E2E2 ||  
[M:2/4]E3/B,/B,2 | 
A,4- | 
A,2-A,3/E,/ | 
E,3/F,/ F,3/A,/ ||  
[M:3/4]A,2A,2F,2 | 
E,6- | 
E,2E,2z2 |]  



